X: 1
T: Mrs Crehan's
M: 4/4
L: 1/8
R: reel
K: Gmaj
G2dG eGdG|~G2dB ABdB|G2gd egdG|FGAB cedB|
G2dG egdG|~G2dB ABdB|G2dB eBdG|FGAB cege|
d2(3Bcd gdBd|d2(3Bcd cA~A2|d2(3Bcd gdBd|dcAc BG~G2|
d2(3Bcd gdBG|~G2BG AE~E2|BABc dedc|BcAc BGGF|
